src/components/icons/WhiteAppliancesIcon.svg

<svg width="36" height="36" viewBox="0 0 36 36" fill="none" xmlns="http://www.w3.org/2000/svg">
<path d="M10.7143 14.9433V28.2449H25.5848V14.9433H10.7143ZM14.8899 20.5809C14.8899 20.8613 14.6626 21.0886 14.3823 21.0886C14.1019 21.0886 13.8746 20.8613 13.8746 20.5809V18.9671C13.8746 18.6868 14.1019 18.4595 14.3823 18.4595C14.6627 18.4595 14.8899 18.6868 14.8899 18.9671V20.5809Z" fill="#E040FB"/>
<path d="M25.5848 28.2449H10.7143C15.128 27.1493 24.2812 22.955 25.5848 14.9433V28.2449Z" fill="black" fill-opacity="0.1"/>
<path d="M23.527 4.28571H12.7722C11.6375 4.28571 10.7143 5.20885 10.7143 6.3436V13.928H25.5849V6.3436C25.5849 5.20885 24.6617 4.28571 23.527 4.28571ZM14.8899 11.8666C14.8899 12.147 14.6626 12.3742 14.3823 12.3742C14.1019 12.3742 13.8746 12.1469 13.8746 11.8666V10.2529C13.8746 9.97247 14.1019 9.74522 14.3823 9.74522C14.6627 9.74522 14.8899 9.97253 14.8899 10.2529V11.8666Z" fill="#D500F9"/>
<path d="M12.7722 4.28571H23.527C24.6617 4.28571 25.5849 5.20885 25.5849 6.3436V13.928C23.9137 11.3998 18.6 6.3436 10.7143 6.3436C10.7143 5.20885 11.6375 4.28571 12.7722 4.28571Z" fill="black" fill-opacity="0.1"/>
<path d="M10.7143 29.2602V29.6564C10.7143 30.7911 11.6374 31.7143 12.7722 31.7143H23.527C24.6617 31.7143 25.5849 30.7911 25.5849 29.6564V29.2602H10.7143Z" fill="#D500F9"/>
</svg>

<svg width="36" height="36" fill="none" xmlns="http://www.w3.org/2000/svg"><path d="M10.714 14.943v13.302h14.87V14.943h-14.87zm4.176 5.638a.508.508 0 11-1.015 0v-1.614a.508.508 0 011.015 0v1.614z" fill="#E040FB"/><path d="M25.585 28.245h-14.87c4.413-1.096 13.566-5.29 14.87-13.302v13.302z" fill="#000" fill-opacity=".1"/><path d="M23.527 4.286H12.772a2.06 2.06 0 00-2.058 2.058v7.584h14.87V6.344a2.06 2.06 0 00-2.057-2.058zm-8.637 7.58a.508.508 0 11-1.015 0v-1.613a.508.508 0 111.015 0v1.614z" fill="#D500F9"/><path d="M12.772 4.286h10.755a2.06 2.06 0 012.058 2.058v7.584C23.914 11.4 18.6 6.344 10.715 6.344a2.06 2.06 0 012.057-2.058z" fill="#000" fill-opacity=".1"/><path d="M10.714 29.26v.396a2.06 2.06 0 002.058 2.058h10.755a2.06 2.06 0 002.058-2.058v-.396h-14.87z" fill="#D500F9"/></svg>
